X: 3842
T: Black Knife, The
R: jig
M: 6/8
K: Dminor
|:D2d d2A|cAc GEC|D2d dcA|def e2c|
D2d d2A|cAc GEC|FEF GEG|1 AGE DEC:|2 AGE D2g||
|:acd def|afa gfg|afd def|afa gfg|
[1 acd def|edc gcg|ad'a gc'g|fge def:|
[2 ad'a gc'g|fgc' gec|Acf fcB|AFE D2C||

